X: 6
T: Sinisi\"a, punasia ruusunkukkia
O: Trad Finland
Z: John Chambers <jc@trillian.mit.edu>
M: 2/4
L: 1/16
K: Dm
| "Dm"DDDD DDDD | D2F2 E2DD | "A7"E2A,2 A,2A,2 | "Dm"D4 F4 \
| "Dm"A2A2 B2A2 | "Gm"A4 G4 | "Dm"F2F2 G2F2 | "A7"F4 E4 |
| "Dm"DDDD DDDD | D2F2 E2DD | "A7"E2A,2 A,2A,2 | "Dm"D4 F4 \
| "Gm"A2G2 A2B2 | "A7"A2G2 F2E2 | "Dm"D4- "Gm"D4 - | "Dm"D4 z4 |]
